symbols/web/voicemail/materialsymbolsoutlined/voicemail_wght600gradN25_24px.svg

<svg xmlns="http://www.w3.org/2000/svg" height="24" width="24"><path d="M6.225 16.325q-2.025 0-3.425-1.413Q1.4 13.5 1.4 11.5q0-2.025 1.4-3.438Q4.2 6.65 6.225 6.65q2 0 3.412 1.4 1.413 1.4 1.413 3.425 0 .675-.175 1.325-.175.65-.55 1.225h3.35q-.375-.575-.55-1.225-.175-.65-.175-1.325 0-2.025 1.413-3.425 1.412-1.4 3.412-1.4 2.025 0 3.425 1.412 1.4 1.413 1.4 3.438 0 2-1.4 3.412-1.4 1.413-3.425 1.413Zm0-2.525q.95 0 1.625-.675t.675-1.65q0-.95-.675-1.625t-1.625-.675q-.975 0-1.637.675-.663.675-.663 1.625 0 .975.663 1.65.662.675 1.637.675Zm11.55 0q.975 0 1.638-.675.662-.675.662-1.65 0-.95-.662-1.625-.663-.675-1.638-.675-.95 0-1.625.675t-.675 1.625q0 .975.675 1.65.675.675 1.625.675Zm-11.55-2.325Zm11.55 0Z"/></svg>

<svg xmlns="http://www.w3.org/2000/svg" height="24" width="24"><path d="M6.225 16.325Q4.2 16.325 2.8 14.912Q1.4 13.5 1.4 11.5Q1.4 9.475 2.8 8.062Q4.2 6.65 6.225 6.65Q8.225 6.65 9.637 8.05Q11.05 9.45 11.05 11.475Q11.05 12.15 10.875 12.8Q10.7 13.45 10.325 14.025H13.675Q13.3 13.45 13.125 12.8Q12.95 12.15 12.95 11.475Q12.95 9.45 14.363 8.05Q15.775 6.65 17.775 6.65Q19.8 6.65 21.2 8.062Q22.6 9.475 22.6 11.5Q22.6 13.5 21.2 14.912Q19.8 16.325 17.775 16.325ZM6.225 13.8Q7.175 13.8 7.85 13.125Q8.525 12.45 8.525 11.475Q8.525 10.525 7.85 9.85Q7.175 9.175 6.225 9.175Q5.25 9.175 4.588 9.85Q3.925 10.525 3.925 11.475Q3.925 12.45 4.588 13.125Q5.25 13.8 6.225 13.8ZM17.775 13.8Q18.75 13.8 19.413 13.125Q20.075 12.45 20.075 11.475Q20.075 10.525 19.413 9.85Q18.75 9.175 17.775 9.175Q16.825 9.175 16.15 9.85Q15.475 10.525 15.475 11.475Q15.475 12.45 16.15 13.125Q16.825 13.8 17.775 13.8ZM6.225 11.475Q6.225 11.475 6.225 11.475Q6.225 11.475 6.225 11.475Q6.225 11.475 6.225 11.475Q6.225 11.475 6.225 11.475Q6.225 11.475 6.225 11.475Q6.225 11.475 6.225 11.475Q6.225 11.475 6.225 11.475Q6.225 11.475 6.225 11.475ZM17.775 11.475Q17.775 11.475 17.775 11.475Q17.775 11.475 17.775 11.475Q17.775 11.475 17.775 11.475Q17.775 11.475 17.775 11.475Q17.775 11.475 17.775 11.475Q17.775 11.475 17.775 11.475Q17.775 11.475 17.775 11.475Q17.775 11.475 17.775 11.475Z"/></svg>
